website/src/static/charts/stackedareachart.svg

<svg width="148" height="80" viewBox="0 0 148 80" fill="none" xmlns="http://www.w3.org/2000/svg">
<path opacity="0.2" d="M146 41.4189L141.2 37.6677L136.4 41.4189L131.6 37.6677L126.8 32.6304H122L117.2 37.6677L112.4 32.6304L107.6 37.6677L102.8 29.7367H93.2L88.4 32.6304L83.6 27.1644L78.8 29.7367H69.2L64.4 27.1644L59.6 29.7367H54.8L50 34.7739H40.4L35.6 29.7367H30.8L26 27.1644L21.2 24.2707L16.4 19.6621L11.6 24.2707L6.8 19.6621H2V67.9053L6.8 65.4589L11.6 67.9053L16.4 65.4589L21.2 62.1738H26L30.8 65.4589L35.6 62.1738L40.4 65.4589L45.2 60.2865H54.8L59.6 62.1738L64.4 58.609L69.2 60.2865H78.8L83.6 58.609L88.4 60.2865H93.2L98 63.5717H107.6L112.4 60.2865H117.2L122 58.609L126.8 56.7218L131.6 53.7162L136.4 56.7218L141.2 53.7162H146V41.4189Z" fill="#2BB3FF"/>
<path d="M146 41.4189L141.2 37.6677L136.4 41.4189L131.6 37.6677L126.8 32.6304H122L117.2 37.6677L112.4 32.6304L107.6 37.6677L102.8 29.7367H98H93.2L88.4 32.6304L83.6 27.1644L78.8 29.7367H74H69.2L64.4 27.1644L59.6 29.7367H54.8L50 34.7739H45.2H40.4L35.6 29.7367H30.8L26 27.1644L21.2 24.2707L16.4 19.6621L11.6 24.2707L6.79999 19.6621H2" stroke="#2BB3FF" stroke-width="3" stroke-linecap="round"/>
<path opacity="0.2" d="M6.8 65.4591L2 67.9055V75.0001H146V53.7163H141.2L136.4 56.7219L131.6 53.7163L126.8 56.7219L122 58.6091L117.2 60.2867H112.4L107.6 63.5719H102.8H98L93.2 60.2867H88.4L83.6 58.6091L78.8 60.2867H74H69.2L64.4 58.6091L59.6 62.1739L54.8 60.2867H50H45.2L40.4 65.4591L35.6 62.1739L30.8 65.4591L26 62.1739H21.2L16.4 65.4591L11.6 67.9055L6.8 65.4591Z" fill="#59DDAA"/>
<path d="M2 67.9055L6.8 65.4591L11.6 67.9055L16.4 65.4591L21.2 62.1739H26L30.8 65.4591L35.6 62.1739L40.4 65.4591L45.2 60.2867H50H54.8L59.6 62.1739L64.4 58.6091L69.2 60.2867H74H78.8L83.6 58.6091L88.4 60.2867H93.2L98 63.5718H102.8H107.6L112.4 60.2867H117.2L122 58.6091L126.8 56.7219L131.6 53.7163L136.4 56.7219L141.2 53.7163H146" stroke="#59DDAA" stroke-width="3" stroke-linecap="round"/>
</svg>

<svg xmlns="http://www.w3.org/2000/svg" width="148" height="80" fill="none" viewBox="0 0 148 80">
  <path fill="#2BB3FF" d="m146 41.419-4.8-3.751-4.8 3.75-4.8-3.75-4.8-5.038H122l-4.8 5.038-4.8-5.038-4.8 5.038-4.8-7.931h-9.6l-4.8 2.893-4.8-5.466-4.8 2.573h-9.6l-4.8-2.573-4.8 2.573h-4.8L50 34.774h-9.6l-4.8-5.037h-4.8L26 27.164l-4.8-2.893-4.8-4.609-4.8 4.609-4.8-4.609H2v48.243l4.8-2.446 4.8 2.446 4.8-2.446 4.8-3.285H26l4.8 3.285 4.8-3.285 4.8 3.285 4.8-5.173h9.6l4.8 1.888 4.8-3.565 4.8 1.677h9.6l4.8-1.677 4.8 1.677h4.8l4.8 3.286h9.6l4.8-3.286h4.8l4.8-1.677 4.8-1.887 4.8-3.006 4.8 3.006 4.8-3.006h4.8V41.42Z" opacity=".2"/>
  <path stroke="#2BB3FF" stroke-linecap="round" stroke-width="3" d="m146 41.419-4.8-3.751-4.8 3.75-4.8-3.75-4.8-5.038H122l-4.8 5.038-4.8-5.038-4.8 5.038-4.8-7.931h-9.6l-4.8 2.893-4.8-5.466-4.8 2.573h-9.6l-4.8-2.573-4.8 2.573h-4.8L50 34.774h-9.6l-4.8-5.037h-4.8L26 27.164l-4.8-2.893-4.8-4.609-4.8 4.609-4.8-4.609H2"/>
  <path fill="#59DDAA" d="M6.8 65.46 2 67.905V75h144V53.716h-4.8l-4.8 3.006-4.8-3.006-4.8 3.006-4.8 1.887-4.8 1.678h-4.8l-4.8 3.285H98l-4.8-3.285h-4.8l-4.8-1.678-4.8 1.678h-9.6l-4.8-1.678-4.8 3.565-4.8-1.887h-9.6l-4.8 5.172-4.8-3.285-4.8 3.285-4.8-3.285h-4.8l-4.8 3.285-4.8 2.447-4.8-2.447Z" opacity=".2"/>
  <path stroke="#59DDAA" stroke-linecap="round" stroke-width="3" d="m2 67.906 4.8-2.447 4.8 2.447 4.8-2.447 4.8-3.285H26l4.8 3.285 4.8-3.285 4.8 3.285 4.8-5.172h9.6l4.8 1.887 4.8-3.565 4.8 1.678h9.6l4.8-1.678 4.8 1.678h4.8l4.8 3.285h9.6l4.8-3.285h4.8l4.8-1.678 4.8-1.887 4.8-3.006 4.8 3.006 4.8-3.006h4.8"/>
</svg>
